!!!COM: Fux, Johann Joseph
!!!OMD: Gradus ad Parnassum Exercise
!!!YEC: CC0 1.0 Universal (Public Domain). Mark Gotham and FourScoreAndMore.org waive all rights to this document.
**kern	**kern	**kern
*part3	*part2	*part1
*staff3	*staff2	*staff1
*I"3	*I"2	*I"1
*I'Pno	*I'Pno	*I'Pno
!!LO:LB:g=z
*clefF4	*clefG2	*clefG2
*k[]	*k[]	*k[]
!!LO:TX:omd:t=
*M4/4	*M4/4	*M4/4
=483	=483	=483
!	!	!LO:TX:a:t=Fig. 159; Species&colon; 5; Modal final&colon; e; Cantus firmus&colon; 2
2r	1e	1g#X
2E\	.	.
=484	=484	=484
2.F\	1c	1a
4E\	.	.
=485	=485	=485
4D\	1d	1f
4E\	.	.
4F\	.	.
4G\	.	.
=486	=486	=486
4A\	1c	1e
4E\	.	.
[2A\	.	.
=487	=487	=487
4A\]	1A	1cc
4G\	.	.
[2F\	.	.
=488	=488	=488
4F\]	1a	1cc
4G\	.	.
4A\	.	.
4B\	.	.
=489	=489	=489
2c\	1g	1ee
[2C/	.	.
=490	=490	=490
4C/]	1e	1cc
4F\	.	.
[2E\	.	.
=491	=491	=491
2E\]	1f	1a
2D\	.	.
=492	=492	=492
1E	1e	1g#X
==	==	==
*-	*-	*-
!!!software: music21 v.9.7.1
!!!software: music21 v.9.7.1
!!!software: MuseScore 3.4.2
!!!RDF**kern: > = above
!!!RDF**kern: < = below
